X: 23
T: Farewell To Ireland
Z: rgbuzz
S: https://thesession.org/tunes/33#setting54181
R: reel
M: 4/4
L: 1/8
K: Dmix
|:DDDF AAAB|cAAG EcAE|DADF AAAB|cAGc ADDA|
DDDF AAAB|cAGE GGcB|AGAc dfed|cAGc ADDA:|
|:B/c/d ed dcAB|cedB cAGc|Ad e/f/e dcAB|cAGc AD F/G/A|
dcAB cecA|GcAE cEGE|FADG F/F/ Ade|cAGc ADDd:|
|:ADDD ADFA|FGGE cEGE|ADDD ADAd|cAGc ADDd|
ADDD ADFA|FGGE cEGE|FADG F/F/ Ade|cAGc ADDA:|
|:dAFA dAFd|cGEG cGE^c|dAFA dAFd|cAGc AD F/G/A|
dcAB cecA|GcAE cEGE|FADG F/F/ Ade|cAGc ADDA:|

%-------------------- TUNE SEPARATOR --------------------%

